X:5
T:La marche Napoléon [ok]
R:
S:
N:|... :| c2-ce/d/ c2 BA | <-> |... | c-c/e/ d2 c2 BA |
A:Champagne
G:
O:France
Z:Eric Forgeot - http://anamnese.online.fr
M:4/4
L:1/8
Q:1/4=135
K:C
"4 fois puis 2 fois"
c>c e2 c>c G2 | c>c e>e c>c G2 :: "3 fois chaque phrase" c>e d>f e>d c>e | d>c B>A G>B A>G | c>e d>f e>d c>e |
d>A B>G c4 | c-c/2e/2 d2 c2 BA | GF GA FA G2 | c3 f a2 gf | ec de g2f2 :|

